X: 18
T:Merry Blacksmith
% Nottingham Music Database
S:FTB 1/16, via EF
M:4/4
L:1/4
K:D
P:A
A|"D"dd/2A/2 B/2A/2F/2A/2|"D"A/2B/2d/2A/2 B/2A/2F/2A/2|\
"D"A/2B/2d/2e/2 "Bm"fe/2d/2|"Em"B/2e/2e/2d/2 F/2"A7"e/2g/2f/2e/2|
"D"d/2c/2d/2A/2 F/2B/2A/2F/2A/2|"D"A/2B/2d/2A/2 B/2A/2F/2A/2|\
"G"A/2B/2d/2e/2 "A7"f/2g/2e/2c/2|"D"d/2B/2A/2F/2 D:|
P:B
f/2g/2|"D"aa/2g/2 ff/2e/2|"D"dd/2A/2 B/2A/2F/2A/2|"D"A/2B/2d/2e/2 "Bm"fe/2d/2|\
"Em"B/2e/2e/2d/2 F/2"A7"e/2g/2f/2e/2|
"D"a/2b/2a/2g/2 f/2g/2f/2e/2|"D"d/2c/2d/2A/2 F/2B/2A/2F/2A/2|\
"G"A/2B/2d/2e/2 "A7"f/2g/2e/2c/2|"D"d/2B/2A/2F/2 D:|
